projects/flag-game/flags/Norway.svg

<svg viewBox="0 0 1000 727" xmlns="http://www.w3.org/2000/svg"><path d="m0 0h1000v727h-1000z" fill="#ef2b2d"/><g fill-rule="evenodd"><path d="m272.726562 0h181.820313v727.273438h-181.820313zm0 0" fill="#fff"/><path d="m0 272.726562h1000v181.820313h-1000zm0 0" fill="#fff"/><path d="m318.183594 0h90.90625v727.273438h-90.90625zm0 0" fill="#002868"/><path d="m0 318.183594h1000v90.90625h-1000zm0 0" fill="#002868"/></g></svg>

<?xml version="1.0" encoding="UTF-8"?>
<svg xmlns="http://www.w3.org/2000/svg" xmlns:xlink="http://www.w3.org/1999/xlink" viewBox="0 0 1000 727" version="1.1">
<g id="surface895">
<rect x="0" y="0" width="1000" height="727" style="fill:rgb(93.72406%,16.862488%,17.64679%);fill-opacity:1;stroke:none;"/>
<path style=" stroke:none;fill-rule:evenodd;fill:rgb(99.998474%,99.998474%,99.998474%);fill-opacity:1;" d="M 272.726562 0 L 454.546875 0 L 454.546875 727.273438 L 272.726562 727.273438 Z M 272.726562 0 "/>
<path style=" stroke:none;fill-rule:evenodd;fill:rgb(99.998474%,99.998474%,99.998474%);fill-opacity:1;" d="M 0 272.726562 L 1000 272.726562 L 1000 454.546875 L 0 454.546875 Z M 0 272.726562 "/>
<path style=" stroke:none;fill-rule:evenodd;fill:rgb(0%,15.686035%,40.783691%);fill-opacity:1;" d="M 318.183594 0 L 409.089844 0 L 409.089844 727.273438 L 318.183594 727.273438 Z M 318.183594 0 "/>
<path style=" stroke:none;fill-rule:evenodd;fill:rgb(0%,15.686035%,40.783691%);fill-opacity:1;" d="M 0 318.183594 L 1000 318.183594 L 1000 409.089844 L 0 409.089844 Z M 0 318.183594 "/>
</g>
</svg>
